logo/zulip-icon.svg

<?xml version="1.0" encoding="UTF-8"?>
<svg width="256px" height="256px" viewBox="0 0 256 256" version="1.1" xmlns="http://www.w3.org/2000/svg" xmlns:xlink="http://www.w3.org/1999/xlink" preserveAspectRatio="xMidYMid">
    <defs>
        <linearGradient x1="50%" y1="0%" x2="50%" y2="100%" id="linearGradient-1">
            <stop stop-color="#24ADFF" offset="0%"></stop>
            <stop stop-color="#7B71FF" offset="100%"></stop>
        </linearGradient>
    </defs>
    <g>
        <path d="M128,0 C198.692448,0 256,57.307552 256,128 C256,198.692448 198.692448,256 128,256 C57.307552,256 0,198.692448 0,128 C0,57.307552 57.307552,0 128,0 Z M121.679533,118.222163 L75.7877336,159.200897 C71.0603547,162.920702 67.9584879,169.060511 67.9584879,175.967416 C67.9584879,187.245548 76.232162,196.475047 86.3444303,196.475047 L172.590938,196.475047 C182.703207,196.475047 190.976881,187.245548 190.976881,175.967416 C190.976881,164.68624 182.703207,155.459784 172.590938,155.459784 L107.299534,155.459784 C106.331533,155.459784 105.719683,154.300009 106.191507,153.356359 L123.024994,119.652857 C123.639888,118.669635 122.531861,117.491595 121.679533,118.222163 Z M172.590938,59.3627915 L86.3444303,59.3627915 C76.232162,59.3627915 67.9584879,68.58925 67.9584879,79.870426 C67.9584879,91.1485579 76.232162,100.378058 86.3444303,100.378058 L86.3444303,100.378058 L151.635834,100.378058 C152.603836,100.378058 153.215686,101.537833 152.743861,102.481482 L152.743861,102.481482 L135.910374,136.184985 C135.29548,137.168207 136.403507,138.346246 137.255836,137.615679 L137.255836,137.615679 L183.147635,96.6308563 C187.875014,92.9080074 190.976881,86.7712425 190.976881,79.8643379 C190.976881,68.586206 182.703207,59.3567064 172.590938,59.3627915 L172.590938,59.3627915 Z" fill="url(#linearGradient-1)"></path>
    </g>
</svg>

<svg viewBox="0 0 256 256" xmlns="http://www.w3.org/2000/svg"><defs><linearGradient id="a" x1="50%" x2="50%" y1="0%" y2="100%"><stop offset="0%" stop-color="#24ADFF"/><stop offset="100%" stop-color="#7B71FF"/></linearGradient></defs><path fill="url(#a)" d="M128 0c70.69 0 128 57.3 128 128 0 70.69-57.31 128-128 128C57.3 256 0 198.69 0 128 0 57.3 57.3 0 128 0Zm-6.33 118.22l-45.9 40.97c-4.73 3.71-7.83 9.85-7.83 16.76 0 11.27 8.27 20.5 18.38 20.5h86.24c10.11 0 18.38-9.23 18.38-20.51 0-11.29-8.28-20.51-18.39-20.51h-65.3c-.97 0-1.58-1.16-1.11-2.11l16.83-33.71c.61-.99-.5-2.17-1.35-1.44Zm50.91-58.86H86.33c-10.12 0-18.39 9.22-18.39 20.5 0 11.27 8.27 20.5 18.38 20.5v0h65.29c.96 0 1.57 1.15 1.1 2.1v0l-16.84 33.7c-.62.98.49 2.16 1.34 1.43v0L183.1 96.6c4.72-3.73 7.82-9.86 7.82-16.77 0-11.28-8.28-20.51-18.39-20.51v0Z"/></svg>
